src/icons/hds/some/snapchat.svg

<svg xmlns="http://www.w3.org/2000/svg" width="24" height="24" viewBox="0 0 24 24">
  <g fill="none" fill-rule="evenodd">
    <rect width="24" height="24"/>
    <path fill="currentColor" d="M19.0714286,3 L4.92857143,3 C3.86383929,3 3,3.86383929 3,4.92857143 L3,19.0714286 C3,20.1361607 3.86383929,21 4.92857143,21 L19.0714286,21 C20.1361607,21 21,20.1361607 21,19.0714286 L21,4.92857143 C21,3.86383929 20.1361607,3 19.0714286,3 Z M18.8102679,15.6522321 C18.6696429,15.9776786 18.0830357,16.2147321 17.0102679,16.3834821 C16.9540179,16.4598214 16.9098214,16.7772321 16.8375,17.0223214 C16.7933036,17.1709821 16.6888393,17.259375 16.5120536,17.259375 L16.5040179,17.259375 C16.2549107,17.259375 15.9897321,17.1428571 15.4674107,17.1428571 C14.7602679,17.1428571 14.5151786,17.3035714 13.9647321,17.6933036 C13.3821429,18.1071429 12.8236607,18.4607143 11.9879464,18.4245536 C11.1441964,18.4888393 10.4370536,17.9745536 10.0392857,17.6933036 C9.48482143,17.3035714 9.24375,17.1428571 8.53660714,17.1428571 C8.034375,17.1428571 7.71696429,17.2674107 7.5,17.2674107 C7.28303571,17.2674107 7.19866071,17.1348214 7.16651786,17.0263393 C7.09419643,16.78125 7.05,16.4598214 6.99375,16.3834821 C6.43928571,16.2991071 5.19375,16.0821429 5.165625,15.5236607 C5.15758929,15.3790179 5.25803571,15.2504464 5.40267857,15.2263393 C7.26294643,14.9209821 8.09866071,13.0125 8.13482143,12.9321429 C8.13482143,12.928125 8.13883929,12.9241071 8.14285714,12.9200893 C8.24330357,12.7191964 8.26339286,12.5504464 8.20714286,12.4178571 C8.07053571,12.1004464 7.48794643,11.9879464 7.24285714,11.8875 C6.60803571,11.6383929 6.51964286,11.3491071 6.55982143,11.1522321 C6.62410714,10.8107143 7.13839286,10.5977679 7.43973214,10.7383929 C7.67678571,10.8508929 7.88973214,10.9071429 8.07053571,10.9071429 C8.203125,10.9071429 8.29151786,10.875 8.33571429,10.8508929 C8.27946429,9.890625 8.146875,8.52053571 8.48839286,7.753125 C9.39241071,5.73214286 11.3049107,5.57142857 11.8674107,5.57142857 C11.8915179,5.57142857 12.1125,5.56741071 12.1366071,5.56741071 C13.5308036,5.56741071 14.86875,6.28258929 15.5236607,7.74910714 C15.8651786,8.51651786 15.7325893,9.88258929 15.6763393,10.846875 C15.7205357,10.8709821 15.7928571,10.8991071 15.9053571,10.903125 C16.078125,10.8950893 16.275,10.8388393 16.4959821,10.734375 C16.6566964,10.6580357 16.8816964,10.6700893 17.0424107,10.734375 C17.2955357,10.8267857 17.45625,11.0075893 17.4602679,11.2125 C17.4642857,11.4736607 17.23125,11.6986607 16.7691964,11.8794643 C16.7129464,11.9035714 16.6446429,11.9236607 16.5723214,11.9477679 C16.3111607,12.0321429 15.9133929,12.1566964 15.8089286,12.4098214 C15.7526786,12.5424107 15.7767857,12.7111607 15.8732143,12.9120536 C15.8772321,12.9160714 15.8772321,12.9200893 15.88125,12.9241071 C15.9174107,13.0044643 16.753125,14.9129464 18.6133929,15.2183036 C18.7741071,15.2584821 18.8986607,15.4392857 18.8102679,15.6522321 L18.8102679,15.6522321 Z"/>
  </g>
</svg>

<svg viewBox="0 0 24 24" role="img" xmlns="http://www.w3.org/2000/svg"><g fill="none" fill-rule="evenodd"><path d="M0 0h24v24H0z"/><path d="M19.071 3H4.93A1.93 1.93 0 003 4.929V19.07A1.93 1.93 0 004.929 21H19.07A1.93 1.93 0 0021 19.071V4.93A1.93 1.93 0 0019.071 3zm-.26 12.652c-.141.326-.728.563-1.8.731-.057.077-.101.394-.174.64-.044.148-.148.236-.325.236h-.008c-.25 0-.514-.116-1.037-.116-.707 0-.952.16-1.502.55-.583.414-1.141.768-1.977.732-.844.064-1.55-.45-1.949-.732-.554-.39-.795-.55-1.502-.55-.503 0-.82.124-1.037.124-.217 0-.301-.132-.333-.24-.073-.246-.117-.567-.173-.644-.555-.084-1.8-.3-1.828-.86a.284.284 0 01.237-.297c1.86-.305 2.696-2.214 2.732-2.294 0-.004.004-.008.008-.012.1-.2.12-.37.064-.502-.136-.318-.72-.43-.964-.53-.635-.25-.723-.539-.683-.736.064-.341.578-.554.88-.414.237.113.45.17.63.17a.563.563 0 00.266-.057c-.057-.96-.19-2.33.152-3.098.904-2.02 2.817-2.182 3.38-2.182l.269-.004c1.394 0 2.732.716 3.387 2.182.341.768.209 2.134.152 3.098a.505.505 0 00.23.056c.172-.008.369-.064.59-.169a.734.734 0 01.546 0c.254.093.414.274.418.479.004.26-.229.486-.69.666-.057.025-.125.045-.198.069-.26.084-.659.209-.763.462-.056.132-.032.301.064.502.004.004.004.008.008.012.036.08.872 1.989 2.732 2.294.161.04.286.221.197.434z" fill="currentColor"/></g></svg>
